X: 472
T: Bûselik Aranağme (Yürüksemâî)
C: ?
O: Turkey
F: http://compmusic.upf.edu/node/140
N: buselik--aranagme--yuruksemai_ii--1--
N: makam= buselik
N: form= aranagme
N: usul= yuruksemai_ii = 6/8
M: 6/8
L: 1/16
K: C    
Q: 1/4=168
%%MIDI tuningsystem comma53
.G2.c2 .B2.c2 .e2.d2  | {e}d2c2 B2c4z2  | \
w:  ARANAĞME  |   | 
.G2.c2 .e2.g2 .a2.g2  | {b}a2f2 d2e4z2  | 
w:   |   | 
d2e2 f2e2 c2A2  | d4 ^c2d4z2  | B2c2 B2cB A2A^G  | A12  | \
w:   |   |   |   | 
.G2.c2 .B2.c2 .e2.d2  | 
w:  ARANAĞME  | 
{e}d2c2 B2c4z2  | .G2.c2 .e2.g2 .a2.g2  | \
w:   |   | 
{b}a2f2 d2e4z2  | d2e2 f2e2 c2A2  | 
w:   |   | 
d4 ^c2d4z2  | B2c2 B2cB A2A^G  | A12  | |


